rpiRobotics/fanuc_motion_program_exec/fanuc_log.csv
timestamp,J1,J2,J3,J4,J5,J6
 0,   0.0000,   0.0000,   0.0000,   0.0000,   0.0000,   0.0000
 8,   0.0000,   0.0000,   0.0000,   0.0000,   0.0000,   0.0000
 16,   0.0000,   0.0000,   0.0000,   0.0000,   0.0000,   0.0000
 24,   0.0000,   0.0000,   0.0000,   0.0000,   0.0000,   0.0000
 32,   0.0000,   0.0000,   0.0000,   0.0000,   0.0000,   0.0000
 40,   0.0000,   0.0000,   0.0000,   0.0000,   0.0000,   0.0000
 48,   0.0000,   0.0000,   0.0000,   0.0000,   0.0000,   0.0000
 56,   0.0000,   0.0000,   0.0000,   0.0000,   0.0000,   0.0000
 72,   0.0000,   0.0000,   0.0000,   0.0000,   0.0000,   0.0000
 80,   0.0000,   0.0000,   0.0000,   0.0000,   0.0000,   0.0000
 88,   0.0000,   0.0000,   0.0000,   0.0000,   0.0000,   0.0000
 96,   0.0000,   0.0000,   0.0000,   0.0000,   0.0000,   0.0000
 104,   0.0000,   0.0000,   0.0000,   0.0000,   0.0000,   0.0000
 112,   0.0000,   0.0000,   0.0000,   0.0000,   0.0000,   0.0000
 120,   0.0000,   0.0000,   0.0000,   0.0000,   0.0000,   0.0000
 128,   0.0000,   0.0000,   0.0000,   0.0000,   0.0000,   0.0000
 136,   0.0000,   0.0000,   0.0000,   0.0000,   0.0000,   0.0000
 144,   0.0000,   0.0000,   0.0000,   0.0000,   0.0000,   0.0000
 152,   0.0000,   0.0000,   0.0000,   0.0000,   0.0000,   0.0000
 160,   0.0000,   0.0000,   0.0000,   0.0000,   0.0000,   0.0000
 168,   0.0000,   0.0000,   0.0000,   0.0000,   0.0000,   0.0000
 176,   0.0000,   0.0000,   0.0000,   0.0000,   0.0000,   0.0000
 184,   0.0000,   0.0000,   0.0000,   0.0000,   0.0000,   0.0000
 200,   0.0000,   0.0000,   0.0000,   0.0000,   0.0000,   0.0000
 208,   0.0000,   0.0000,   0.0000,   0.0000,   0.0000,   0.0000
 216,   0.0000,   0.0000,   0.0000,   0.0000,   0.0000,   0.0000
 224,   0.0000,   0.0000,   0.0000,   0.0000,   0.0000,   0.0000
 232,   0.0000,   0.0000,   0.0000,   0.0000,   0.0000,   0.0000
 240,   0.0000,   0.0000,   0.0000,   0.0000,   0.0000,   0.0000
 248,   0.0000,   0.0000,   0.0000,   0.0000,   0.0000,   0.0000
 256,   0.0000,   0.0000,   0.0000,   0.0000,   0.0000,   0.0000
 264,   0.0000,   0.0000,   0.0000,   0.0000,   0.0000,   0.0000
 272,   0.0000,   0.0000,   0.0000,   0.0000,   0.0000,   0.0000
 280,   0.0000,   0.0000,   0.0000,   0.0000,   0.0000,   0.0000
 288,   0.0000,   0.0000,   0.0000,   0.0000,   0.0000,   0.0000
 296,   0.0000,   0.0000,   0.0000,   0.0000,   0.0000,   0.0000
 304,   0.0000,    .0002,   -.0001,   0.0000,   -.0002,    .0001
 312,   0.0000,    .0018,   -.0009,   0.0000,   -.0018,    .0009
 328,   0.0000,    .0286,   -.0143,   0.0000,   -.0286,    .0143
 336,   0.0000,    .0286,   -.0143,   0.0000,   -.0286,    .0143
 344,   0.0000,    .0495,   -.0247,   0.0000,   -.0495,    .0247
 352,   0.0000,    .0786,   -.0393,   0.0000,   -.0786,    .0393
 360,   0.0000,    .1174,   -.0587,   0.0000,   -.1174,    .0587
 368,   0.0000,    .1671,   -.0835,   0.0000,   -.1671,    .0835
 376,   0.0000,    .2293,   -.1146,   0.0000,   -.2293,    .1146
 384,   0.0000,    .3052,   -.1526,   0.0000,   -.3052,    .1526
 392,   0.0000,    .3962,   -.1981,   0.0000,   -.3962,    .1981
 400,   0.0000,    .5038,   -.2519,   0.0000,   -.5038,    .2519
 408,   0.0000,    .6292,   -.3146,   0.0000,   -.6292,    .3146
 416,   0.0000,    .7739,   -.3870,   0.0000,   -.7739,    .3870
 424,   0.0000,    .9393,   -.4696,   0.0000,   -.9393,    .4696
 432,   0.0000,   1.1267,   -.5633,   0.0000,  -1.1267,    .5633
 440,   0.0000,   1.3372,   -.6686,   0.0000,  -1.3372,    .6686
 456,   0.0000,   2.1073,  -1.0537,   0.0000,  -2.1073,   1.0537
 464,   0.0000,   2.1073,  -1.0537,   0.0000,  -2.1073,   1.0537
 472,   0.0000,   2.4071,  -1.2035,   0.0000,  -2.4071,   1.2035
 480,   0.0000,   2.7261,  -1.3630,   0.0000,  -2.7261,   1.3630
 488,   0.0000,   3.0629,  -1.5315,   0.0000,  -3.0630,   1.5315
 496,   0.0000,   3.4164,  -1.7082,   0.0000,  -3.4164,   1.7082
 504,   0.0000,   3.7849,  -1.8924,   0.0000,  -3.7849,   1.8924
 512,   0.0000,   4.1672,  -2.0836,   0.0000,  -4.1672,   2.0836
 520,   0.0000,   4.5619,  -2.2809,   0.0000,  -4.5619,   2.2809
 528,   0.0000,   4.9675,  -2.4838,   0.0000,  -4.9675,   2.4838
 536,   0.0000,   5.3829,  -2.6914,   0.0000,  -5.3829,   2.6914
 544,   0.0000,   5.8064,  -2.9032,   0.0000,  -5.8064,   2.9032
 552,   0.0000,   6.2369,  -3.1185,   0.0000,  -6.2369,   3.1184
 560,   0.0000,   6.6729,  -3.3364,   0.0000,  -6.6729,   3.3364
 568,   0.0000,   7.1129,  -3.5565,   0.0000,  -7.1129,   3.5565
 584,   0.0000,   8.4444,  -4.2222,   0.0000,  -8.4444,   4.2222
 592,   0.0000,   8.4444,  -4.2222,   0.0000,  -8.4444,   4.2222
 600,   0.0000,   8.8889,  -4.4444,   0.0000,  -8.8889,   4.4445
 608,   0.0000,   9.3333,  -4.6667,   0.0000,  -9.3333,   4.6667
 616,   0.0000,   9.7778,  -4.8889,   0.0000,  -9.7778,   4.8889
 624,   0.0000,  10.2222,  -5.1111,   0.0000, -10.2222,   5.1111
 632,   0.0000,  10.6667,  -5.3333,   0.0000, -10.6667,   5.3333
 640,   0.0000,  11.1111,  -5.5556,   0.0000, -11.1111,   5.5556
 648,   0.0000,  11.5556,  -5.7778,   0.0000, -11.5556,   5.7778
 656,   0.0000,  12.0000,  -6.0000,   0.0000, -12.0000,   6.0000
 664,   0.0000,  12.4442,  -6.2221,   0.0000, -12.4442,   6.2221
 672,   0.0000,  12.8871,  -6.4435,   0.0000, -12.8870,   6.4435
 680,   0.0000,  13.3271,  -6.6636,   0.0000, -13.3271,   6.6636
 688,   0.0000,  13.7631,  -6.8815,   0.0000, -13.7631,   6.8815
 696,   0.0000,  14.1936,  -7.0968,   0.0000, -14.1936,   7.0968
 712,   0.0000,  15.4381,  -7.7191,   0.0000, -15.4381,   7.7191
 720,   0.0000,  15.4381,  -7.7191,   0.0000, -15.4381,   7.7191
 728,   0.0000,  15.8328,  -7.9164,   0.0000, -15.8328,   7.9164
 736,   0.0000,  16.2151,  -8.1076,   0.0000, -16.2151,   8.1076
 744,   0.0000,  16.5836,  -8.2918,   0.0000, -16.5837,   8.2918
 752,   0.0000,  16.9370,  -8.4685,   0.0000, -16.9371,   8.4685
 760,   0.0000,  17.2739,  -8.6370,   0.0000, -17.2739,   8.6370
 768,   0.0000,  17.5929,  -8.7965,   0.0000, -17.5929,   8.7965
 776,   0.0000,  17.8927,  -8.9463,   0.0000, -17.8927,   8.9463
 784,   0.0000,  18.1718,  -9.0859,   0.0000, -18.1718,   9.0859
 792,   0.0000,  18.4289,  -9.2144,   0.0000, -18.4289,   9.2144
 800,   0.0000,  18.6628,  -9.3314,   0.0000, -18.6628,   9.3314
 808,   0.0000,  18.8733,  -9.4366,   0.0000, -18.8733,   9.4366
 816,   0.0000,  19.0607,  -9.5303,   0.0000, -19.0607,   9.5303
 824,   0.0000,  19.2260,  -9.6130,   0.0000, -19.2260,   9.6130
 840,   0.0000,  19.6037,  -9.8019,   0.0000, -19.6037,   9.8019
 848,   0.0000,  19.6037,  -9.8019,   0.0000, -19.6037,   9.8019
 856,   0.0000,  19.6948,  -9.8474,   0.0000, -19.6948,   9.8474
 864,   0.0000,  19.7707,  -9.8853,   0.0000, -19.7707,   9.8853
 872,   0.0000,  19.8328,  -9.9164,   0.0000, -19.8328,   9.9164
 880,   0.0000,  19.8826,  -9.9413,   0.0000, -19.8826,   9.9413
 888,   0.0000,  19.9213,  -9.9607,   0.0000, -19.9213,   9.9607
 896,   0.0000,  19.9505,  -9.9752,   0.0000, -19.9505,   9.9752
 904,   0.0000,  19.9713,  -9.9857,   0.0000, -19.9713,   9.9857
 912,   0.0000,  19.9853,  -9.9927,   0.0000, -19.9853,   9.9927
 920,   0.0000,  19.9938,  -9.9969,   0.0000, -19.9938,   9.9969
 928,   0.0000,  19.9982,  -9.9991,   0.0000, -19.9982,   9.9991
 936,   0.0000,  19.9998,  -9.9999,   0.0000, -19.9998,   9.9999
